assets/global/instagram-icon.svg

<svg enable-background="new 0 0 23.8 23.8" viewBox="0 0 23.8 23.8" xmlns="http://www.w3.org/2000/svg"><path d="m11.9 2.1c3.2 0 3.5 0 4.8.1 1.2.1 1.8.2 2.2.4.5.2 1 .5 1.4.9s.7.9.9 1.4c.2.4.4 1 .4 2.2.1 1.3.1 1.6.1 4.8s0 3.5-.1 4.8c-.1 1.2-.2 1.8-.4 2.2-.4 1-1.2 1.9-2.3 2.3-.4.2-1 .4-2.2.4-1.3.1-1.6.1-4.8.1s-3.5 0-4.8-.1c-1.2-.1-1.8-.2-2.2-.4-.5-.2-1-.5-1.4-.9s-.7-.9-.9-1.4c-.2-.4-.4-1-.4-2.2-.1-1.3-.1-1.6-.1-4.8s0-3.5.1-4.8c.1-1.2.2-1.8.4-2.2.2-.5.5-1 .9-1.4s.9-.7 1.4-.9c.4-.2 1-.4 2.2-.4 1.2 0 1.6-.1 4.8-.1m0-2.1c-3.2 0-3.7 0-4.9.1s-2.1.2-2.9.5-1.5.8-2.1 1.4-1.1 1.3-1.4 2.1-.5 1.6-.5 2.9-.1 1.7-.1 4.9 0 3.6.1 4.9.3 2.1.6 2.9.8 1.5 1.4 2.1 1.3 1.1 2.1 1.4 1.6.5 2.9.6 1.7.1 4.9.1 3.6 0 4.9-.1 2.1-.3 2.9-.6c1.6-.6 2.9-1.9 3.5-3.5.3-.8.5-1.6.6-2.9s.1-1.7.1-4.9 0-3.6-.1-4.9-.3-2.1-.6-2.9-.8-1.5-1.4-2.1-1.3-1.1-2.1-1.4-1.6-.5-2.9-.6-1.8 0-5 0zm0 5.8c-3.4 0-6.1 2.7-6.1 6.1s2.7 6.1 6.1 6.1 6.1-2.7 6.1-6.1c0-3.4-2.8-6.1-6.1-6.1zm0 10c-2.2 0-4-1.8-4-4s1.8-4 4-4 4 1.8 4 4c-.1 2.3-1.8 4-4 4zm7.7-10.3c0 .8-.6 1.5-1.4 1.5s-1.4-.6-1.4-1.4.6-1.4 1.4-1.4c.8-.1 1.4.6 1.4 1.3z" fill="#b3b3b3"/></svg>

<?xml version="1.0" encoding="utf-8"?>
<!-- Generator: Adobe Illustrator 23.0.3, SVG Export Plug-In . SVG Version: 6.00 Build 0)  -->
<svg version="1.1" id="Layer_1" xmlns="http://www.w3.org/2000/svg" xmlns:xlink="http://www.w3.org/1999/xlink" x="0px" y="0px"
	 viewBox="0 0 23.8 23.8" style="enable-background:new 0 0 23.8 23.8;" xml:space="preserve">
<style type="text/css">
	.st0{fill:#B3B3B3;}
</style>
<title>Asset 1</title>
<g>
	<g id="Layer_1-2">
		<path class="st0" d="M11.9,2.1c3.2,0,3.5,0,4.8,0.1c1.2,0.1,1.8,0.2,2.2,0.4c0.5,0.2,1,0.5,1.4,0.9c0.4,0.4,0.7,0.9,0.9,1.4
			c0.2,0.4,0.4,1,0.4,2.2c0.1,1.3,0.1,1.6,0.1,4.8s0,3.5-0.1,4.8c-0.1,1.2-0.2,1.8-0.4,2.2c-0.4,1-1.2,1.9-2.3,2.3
			c-0.4,0.2-1,0.4-2.2,0.4c-1.3,0.1-1.6,0.1-4.8,0.1s-3.5,0-4.8-0.1c-1.2-0.1-1.8-0.2-2.2-0.4c-0.5-0.2-1-0.5-1.4-0.9
			c-0.4-0.4-0.7-0.9-0.9-1.4c-0.2-0.4-0.4-1-0.4-2.2c-0.1-1.3-0.1-1.6-0.1-4.8s0-3.5,0.1-4.8c0.1-1.2,0.2-1.8,0.4-2.2
			c0.2-0.5,0.5-1,0.9-1.4c0.4-0.4,0.9-0.7,1.4-0.9c0.4-0.2,1-0.4,2.2-0.4C8.3,2.2,8.7,2.1,11.9,2.1 M11.9,0C8.7,0,8.2,0,7,0.1
			S4.9,0.3,4.1,0.6C3.3,0.9,2.6,1.4,2,2C1.4,2.6,0.9,3.3,0.6,4.1C0.3,4.9,0.1,5.7,0.1,7S0,8.7,0,11.9s0,3.6,0.1,4.9s0.3,2.1,0.6,2.9
			c0.3,0.8,0.8,1.5,1.4,2.1c0.6,0.6,1.3,1.1,2.1,1.4c0.8,0.3,1.6,0.5,2.9,0.6s1.7,0.1,4.9,0.1s3.6,0,4.9-0.1s2.1-0.3,2.9-0.6
			c1.6-0.6,2.9-1.9,3.5-3.5c0.3-0.8,0.5-1.6,0.6-2.9s0.1-1.7,0.1-4.9s0-3.6-0.1-4.9s-0.3-2.1-0.6-2.9c-0.3-0.8-0.8-1.5-1.4-2.1
			c-0.6-0.6-1.3-1.1-2.1-1.4c-0.8-0.3-1.6-0.5-2.9-0.6S15.1,0,11.9,0z M11.9,5.8c-3.4,0-6.1,2.7-6.1,6.1S8.5,18,11.9,18
			s6.1-2.7,6.1-6.1l0,0C18,8.5,15.2,5.8,11.9,5.8z M11.9,15.8c-2.2,0-4-1.8-4-4s1.8-4,4-4s4,1.8,4,4l0,0
			C15.8,14.1,14.1,15.8,11.9,15.8z M19.6,5.5C19.6,6.3,19,7,18.2,7c-0.8,0-1.4-0.6-1.4-1.4s0.6-1.4,1.4-1.4
			C19,4.1,19.6,4.8,19.6,5.5L19.6,5.5z"/>
	</g>
</g>
</svg>
